X:1
T:Beulah, CM
T:George Mursell Garrett, 1889
T:Beulah, CM
T:Public Domain
C:George Mursell Garrett, 1889
Z:Public Domain
%%score ( 1 2 ) ( 3 4 )
L:1/8
M:4/4
K:E
V:1 treble 
V:2 treble 
V:3 bass 
V:4 bass 
V:1
 [EG]2 | [EF]2 [DG]2 E2 [EB]2 | [EA]2 [DB]2 [EG]2 [EB]2 | [Dd]2 [Dc]2 [EB]2 [EG]2 | [DF]6 [EG]2 | %5
 F2 [EG]2 [EA]2 [F^A]2 | [FB]2 [Ec]2 [Dd]2 [DB]2 | [Ee]2 [EG]2 [EF]2 [DF]2 | E6 |] %9
V:2
 x2 | x4 E2 x2 | x8 | x8 | x8 | F2 x6 | x8 | x8 | E6 |] %9
V:3
 [E,B,]2 | [B,,A,]2 [B,,B,]2 [C,G,]2 [G,B,]2 | [F,C]2 [B,,B,]2 [E,B,]2 [G,B,]2 | %3
 [F,A,]2 [F,A,]2 [G,B,]2 [E,B,]2 | [B,,B,]6 [E,B,]2 | [D,B,]2 [=D,B,]2 [C,C]2 (F,E,) | %6
 [D,B,]2 [F,^A,]2 B,2 [=A,B,]2 | [G,B,]2 [E,B,]2 [C,^A,]2 (B,=A,) | [E,G,]6 |] %9
V:4
 x2 | x8 | x8 | x8 | x8 | x6 C2 | x4 B,2 x2 | x6 B,,2 | x6 |] %9

